X: 7
T: Haste To The Wedding
B: jims roots
B: ralph
B: begged borrowed and stolen
B: steve tunes
M:6/8
L:1/8
R: jig
Q: 3/8=100
K:Dmaj
V:1 
A|:"D"AFA Agf|"G"ede fdB|"D"AFA AGF|"A"EFE EFG|
"D"AFA Agf|"G"ede fdB|"A"AFg faf|1 "D"ded d2A:|2 "D"ded d2a||
|:"D"afa afa|"G"bgb bgb|"D"afa agf|"A"efe efg|
"D"a3 f3|"G"ede fdB|"A"AFg faf|1 "D"ded d2a:|2 "D"ded d3||
% abcbook-tune_id 6298c25d443b0dd9f5a4cac2


% abcbook-boost 0
% abcbook-tablature 
% abcbook-transpose 
% abcbook-lastupdated 1666623455372
% abcbook-soundfonts 
% abcbook-repeats 1


